modules/base/images/unsuppressed_hover.svg

<?xml version="1.0" encoding="utf-8"?><svg xmlns="http://www.w3.org/2000/svg" viewBox="0 0 96 96" enable-background="new 0 0 96 96"><g fill="#999"><path d="M42.2 57.3l14.6-14.7 19.9-19.9 16.3-16.2-6.5-6.5-16.5 16.5c-6.9-5.1-15.4-8.1-24.7-8.1-23 0-41.6 18.6-41.6 41.5 0 9.3 3 17.8 8.1 24.7l-11.6 11.7 6.5 6.5 11.4-11.4 24.1-24.1zm-23.8 0v-14.7h25.5l-14.7 14.7h-10.8zM62.9 42.6h9.3v14.7h-24l-26.7 26.7c6.7 4.7 14.9 7.5 23.8 7.5 23 0 41.6-18.6 41.6-41.6 0-8.9-2.8-17.1-7.5-23.8l-16.5 16.5z"/></g></svg>

<?xml version="1.0" encoding="utf-8"?>
<!-- Generator: Adobe Illustrator 17.1.0, SVG Export Plug-In . SVG Version: 6.00 Build 0)  -->
<!DOCTYPE svg PUBLIC "-//W3C//DTD SVG 1.1//EN" "http://www.w3.org/Graphics/SVG/1.1/DTD/svg11.dtd">
<svg version="1.1" id="Layer_1" xmlns="http://www.w3.org/2000/svg" xmlns:xlink="http://www.w3.org/1999/xlink" x="0px" y="0px"
	 viewBox="0 0 96 96" enable-background="new 0 0 96 96" xml:space="preserve">
<g>
	<path fill="#999999" d="M42.2,57.3L42.2,57.3l14.6-14.7l0,0l19.9-19.9l0,0L93,6.5L86.5,0L70,16.5c-6.9-5.1-15.4-8.1-24.7-8.1
		C22.3,8.4,3.7,27,3.7,49.9c0,9.3,3,17.8,8.1,24.7L0.2,86.3l6.5,6.5l11.4-11.4l0,0L42.2,57.3z M18.4,57.3V42.6h25.5L29.2,57.3H18.4z
		"/>
	<path fill="#999999" d="M62.9,42.6h9.3v14.7h-24L21.5,84c6.7,4.7,14.9,7.5,23.8,7.5c23,0,41.6-18.6,41.6-41.6
		c0-8.9-2.8-17.1-7.5-23.8L62.9,42.6z"/>
</g>
</svg>
